svg/UnitedNationsOCHA-Humanitarian/food_NFI_sugar_icon_box.svg

<svg xmlns="http://www.w3.org/2000/svg" viewBox="0 0 32 32" enable-background="new 0 0 32 32"><path fill="#407cca" d="m25.6 0h-19.2c-3.52 0-6.4 2.88-6.4 6.4v19.2c0 3.52 2.88 6.4 6.4 6.4h19.2c3.521 0 6.4-2.88 6.4-6.4v-19.2c0-3.52-2.88-6.4-6.4-6.4m-12.785 5.653h6.367v6.369h-6.367v-6.369m10.777 7.162v6.369h-6.368v-6.369h6.368m-15.186 0h6.369v6.369h-6.369v-6.369m1.963 13.532h-6.369v-6.368h6.369v6.368m8.814 0h-6.367v-6.368h6.367v6.368m8.817 0h-6.369v-6.368h6.369v6.368"/></svg>

<?xml version="1.0" encoding="utf-8"?>
<!-- Generator: Adobe Illustrator 16.0.3, SVG Export Plug-In . SVG Version: 6.00 Build 0)  -->
<!DOCTYPE svg PUBLIC "-//W3C//DTD SVG 1.1//EN" "http://www.w3.org/Graphics/SVG/1.1/DTD/svg11.dtd">
<svg version="1.1" id="Layer_1" xmlns="http://www.w3.org/2000/svg" xmlns:xlink="http://www.w3.org/1999/xlink" x="0px" y="0px"
	 width="32px" height="32px" viewBox="0 0 32 32" enable-background="new 0 0 32 32" xml:space="preserve">
<path fill="#407CCA" d="M25.6,0H6.4C2.88,0,0,2.88,0,6.4v19.2C0,29.12,2.88,32,6.4,32h19.2c3.521,0,6.4-2.88,6.4-6.4V6.4
	C32,2.88,29.12,0,25.6,0z M12.815,5.653h6.367v6.369h-6.367V5.653z M23.592,12.815v6.369h-6.368v-6.369H23.592z M8.406,12.815h6.369
	v6.369H8.406V12.815z M10.369,26.347H4v-6.368h6.369V26.347z M19.183,26.347h-6.367v-6.368h6.367V26.347z M28,26.347h-6.369v-6.368
	H28V26.347z"/>
</svg>
